X: 422
T: A Trip To The Bridge
R: reel
M: 4/4
K: Gmajor
|:"G"BcdB "D"c2 dc|"G"BdcA "D"GF D2|"G"GABd "Am"c2 (3ABc|"D"d2 dc ABcA|
"G"d2 dB "Am"cA"D"dc|"G"Bdge "D"fgad "G"gB"C"ed "Am"cA"D"dc|"G"(3Bcd "D"AD "G"G4:|
|:"G"gbag "D"fadc|"Am"(3ABc AG "D"FA D2|"D"FG (3ABc "G"Bcd=f|"C"ec "Am"(3ABc "D"defd|
"G"gbag "D"f3 d|"Am"c2 (3efg "D"afdc|"G"dB "Am"(3ABc "G"Bcdg|"Am"eg "D"(3fga "G"g4:|

